X: 1
T: WHIDDON'S FAVORITE -- REEL
B: Ryan's Mammoth Collection of Fiddle Tunes
R: REEL
M: 2/4
L: 1/16
Z: Contributed 20000425023555 by Ivan Bradley bradleyi:peoplepc.com
K: A
vED |\
(vCD^DE FECA,) | .A.E.B.E .c.E.A.E | (uCD^DE FECA,) | {c}BABc BAFE |
(vCD^DE FECA,) | .A.E.B.E .c.E.A.E | (uCD^DE FECA,) | {c}BABc A2  :|
|: ue2 |\
{b}agab agfe  | fedc BAGB | {b}agab "4"c'afe | dcBA GBE2 |
{b}vagab agfe | fedc BAGB | A^AB^B cd^de | ^efg^g a2 :|
